dist/icons/svgs/heart-solid.svg

<svg xmlns="http://www.w3.org/2000/svg" width="24" height="24" fill="currentcolor" class="icon-heart-solid" viewBox="0 0 24 24">
  <path d="M2 9.46094V9.26562C2 6.53125 3.95312 4.1875 6.64844 3.75781C8.40625 3.44531 10.2422 4.03125 11.5312 5.32031L12 5.75L12.4297 5.32031C13.7188 4.03125 15.5547 3.44531 17.3125 3.75781C20.0078 4.1875 22 6.53125 22 9.26562V9.46094C22 11.1016 21.2969 12.6641 20.125 13.7578L13.0547 20.3594C12.7812 20.6328 12.3906 20.75 12 20.75C11.5703 20.75 11.1797 20.6328 10.9062 20.3594L3.83594 13.7578C2.66406 12.6641 2 11.1016 2 9.46094Z"/>
</svg>

<svg xmlns="http://www.w3.org/2000/svg" width="24" height="24" fill="currentColor" class="icon-heart-solid" viewBox="0 0 24 24">
  <path d="M2 9.46v-.194C2 6.53 3.953 4.188 6.648 3.758c1.758-.313 3.594.273 4.883 1.562l.469.43.43-.43c1.289-1.289 3.125-1.875 4.883-1.562A5.58 5.58 0 0 1 22 9.266v.195a5.9 5.9 0 0 1-1.875 4.297l-7.07 6.601c-.274.274-.664.391-1.055.391-.43 0-.82-.117-1.094-.39l-7.07-6.602C2.664 12.664 2 11.102 2 9.46"/>
</svg>
